Z/zeyko.kitchen logo.svg

<?xml version="1.0" ?>
<svg xmlns="http://www.w3.org/2000/svg" viewBox="0 0 192.756 192.756">
	<g fill-rule="evenodd" clip-rule="evenodd">
		<path d="M2.834 123.359l20.521-26.713H7.235l1.254-10.797h35.923l-21.058 27.403H40.14a24.547 24.547 0 0 1-1.305-7.932c0-9.774 7.318-19.471 17.629-19.471h25.254l8.904 18.934 10.055-18.934h13.869l-30.218 56.213H70.254l12.742-23.361-6.218-12.229H50.374c.255 4.527 3.608 8.469 8.341 8.469 2.865 0 5.424-1.254 6.78-3.812h11.283c-1.151 3.121-2.942 5.781-5.501 7.957-4.631 3.939-10.362 4.273-16.145 4.273H2.834z"/>
		<path d="M109.99 123.359l5.297-44.341H97.504l19.932-13.51h-13.842l21.518-14.814 17.68 14.814h-11.104l16.094 13.51H128.54l-2.455 20.494 11.514-13.663h15.787l-14.637 17.528 11.848 15.734c-2.432-4.018-4.119-8.238-4.119-13.023 0-12.486 10.131-20.571 22.234-20.571 11.18 0 21.211 6.601 21.211 18.627a18.837 18.837 0 0 1-10.133 16.732c-3.684 1.92-7.701 2.482-11.795 2.482h-30.396l-12.486-16.887-1.945 16.887H109.99v.001z"/>
		<path d="M51.474 99.283h16.631c-1.279-4.043-3.94-6.475-8.341-6.475-4.247.001-7.061 2.636-8.29 6.475zM167.943 95.572a8.943 8.943 0 0 0-8.98 8.98c0 4.836 3.658 8.775 8.52 8.775 5.193 0 9.082-4.094 9.082-9.236-.001-4.835-3.76-8.519-8.622-8.519z" fill="#fff"/>
	</g>
</svg>

<?xml version="1.0" ?>
<svg xmlns="http://www.w3.org/2000/svg" viewBox="0 0 192.756 192.756">
	<g fill-rule="evenodd" clip-rule="evenodd" fill="#FFF">
		<path d="M 2.834,123.359 L 23.355,96.646 L 7.235,96.646 L 8.489,85.849 L 44.412,85.849 L 23.354,113.252 L 40.14,113.252 A 24.547,24.547 0.0 0,1 38.835,105.32 C 38.835,95.546 46.153,85.849 56.464,85.849 L 81.718,85.849 L 90.622,104.783 L 100.677,85.849 L 114.546,85.849 L 84.328,142.062 L 70.254,142.062 L 82.996,118.701 L 76.778,106.472 L 50.374,106.472 C 50.629,110.999 53.982,114.941 58.715,114.941 C 61.58,114.941 64.139,113.687 65.495,111.129 L 76.778,111.129 C 75.627,114.25 73.836,116.91 71.277,119.086 C 66.646,123.025 60.915,123.359 55.132,123.359 L 2.834,123.359 L 2.834,123.359 M 51.474,99.283 L 68.105,99.283 C 66.826,95.24 64.165,92.808 59.764,92.808 C 55.517,92.809 52.703,95.444 51.474,99.283 L 51.474,99.283"/>
		<path d="M 109.99,123.359 L 115.287,79.018 L 97.504,79.018 L 117.436,65.508 L 103.594,65.508 L 125.112,50.694 L 142.792,65.508 L 131.688,65.508 L 147.782,79.018 L 128.54,79.018 L 126.085,99.512 L 137.599,85.849 L 153.386,85.849 L 138.749,103.377 L 150.597,119.111 C 148.165,115.093 146.478,110.873 146.478,106.088 C 146.478,93.602 156.609,85.517 168.712,85.517 C 179.892,85.517 189.923,92.118 189.923,104.144 A 18.837,18.837 0.0 0,1 179.79,120.876 C 176.106,122.796 172.089,123.358 167.995,123.358 L 137.599,123.358 L 125.113,106.471 L 123.168,123.358 L 109.99,123.358 L 109.99,123.359 L 109.99,123.359 M 167.943,95.572 A 8.943,8.943 0.0 0,0 158.963,104.552 C 158.963,109.388 162.621,113.327 167.483,113.327 C 172.676,113.327 176.565,109.233 176.565,104.091 C 176.564,99.256 172.805,95.572 167.943,95.572 L 167.943,95.572"/>
	</g>
</svg>
